X:11
T: Megy a gőzös a Pregyálon felfelé
L:1/4
K:C
A A ^G A | d c B>c | B<A A z
e e f e | d d B G | c<c c z
e e f e | A<A B c | d/d/ d/d/ e>c  | B<A E z
A A ^G A | d c B>c | B<A A z

